!!!!SEGMENT: pl-sa--178-a-v-8--001-003_anonim--msza-patrem.krn
!!!cenid: 17xx:1646
!!!COM: Anonim
!!!COM-rismID: pe30004985
!!!CDT:
!!!CNT:
!!!OPR: Msza
!!!OTL: Patrem
!!!OMV: 003
!!!PDT:
!!!AGN: Sacred; Mass
!!!YEC: Copyright 2022 Narodowy Instytut Fryderyka Chopina (https://polishscores.org)
!!!YEM: License CC-BY-4.0 (https://creativecommons.org/licenses/by/4.0)
!!!SMS-siglum: PL-SA
!!!SMS-shelfmark: 178/A V 8
!!!SMS-shelfwork: 001-003 M
!!!SMS-variant:
!!!SMS-altvar:
!!!NIFC-rismSourceID: 1001035884
!!!NIFC-rismChildID: 1001035884
!!!NIFC-islandoraID: none
!!!URL-pdf-islandora:
!!!URL-scan: https://bc.bdsandomierz.pl/dlibra/publication/1513/edition/1481/content @EN{Scan in the Sandomierz Diocese Digital Library} @PL{Skany w portalu Cyfrowa Biblioteka Diecezjalna w Sandomierzu}
!!!IIIF:
!!!ONB-nifc: UWAGA: części Mszy: 1. Kyrie, 2. Gloria, 3. Patrem, 4. Sanctus, 5. Agnus Dei
!!!OMD: All[egr]o
!!!AIN: 1 bass 1 organ 1 soprn 2 violn
!!!key: G
**kern	**fba	**kern	**kern	**dynam	**kern	**text	**kern	**text
*part5	*	*part4	*part3	*	*part2	*	*part1	*
*staff5	*	*staff4	*staff3	*	*staff2	*	*staff1	*
*I"Organo.	*	*I"Violino 2do.	*I"Violino Primo.	*	*I"Baſso	*	*I"Canto.	*
*I'org (=bc.fig)	*	*I'vl 2	*I'vl 1	*	*I'B	*	*I'S	*
*Iorgan	*	*Ivioln	*Ivioln	*	*Ibass	*	*Isoprn	*
*ICklav	*	*ICstr	*ICstr	*	*ICvox	*	*ICvox	*
*clefF4	*	*clefG2	*clefG2	*	*clefF4	*	*clefC1	*
*k[f#]	*	*k[f#]	*k[f#]	*	*k[f#]	*	*k[f#]	*
*G:	*	*G:	*G:	*	*G:	*	*G:	*
*M3/4	*	*M3/4	*M3/4	*	*M3/4	*	*M3/4	*
=1	=1	=1	=1	=1	=1	=1	=1	=1
!!LO:TX:t=P:problem:4\ 8\ 16\ left, middle or right:global
!LO:TX:a:B:t=allo	!	!LO:TX:a:B:t=allo	!LO:TX:a:B:t=allo	!	!LO:TX:a:B:t=allo	!	!LO:TX:t=P:problem=brak oznaczenia tempa	!
8G\L	.	8gg\L	8gg\L	.	8G\	Pa-	8dd\	Pa-
8G\	.	16dd\L	16dd\L	.	16G\	-tre(m)	16b\	-tr(em)
.	.	16b\JJ	16b\JJ	.	16G\	o-	16b\	o-
8B\	.	8g\L	8g\L	.	8B\	-mni-	8dd\	-mni-
8B\	.	16b\L	16b\L	.	8G\	-po-	8dd\	-po-
.	.	16dd\JJ	16dd\JJ	.	.	.	.	.
8G\	.	8gg\L	8gg\L	.	8B\	-ten-	8b\	-ten-
8G\J	.	16aa\L	16aa\L	.	16G\	-t(em)	16dd\	-t(em)
.	.	16bb\JJ	16bb\JJ	.	16G\	fa-	16dd\	fa-
!	!	!	!	!	!	!	!LO:LB:g=original	!
=2	=2	=2	=2	=2	=2	=2	=2	=2
8F#\L	.	8aa\L	8aa\L	.	8F#\	-cto-	8ff#\	-cto-
8F#\	.	16ff#\L	16ff#\L	.	8F#\	-rem	8dd\	-r(em)
.	.	16dd\JJ	16dd\JJ	.	.	.	.	.
!	!	!	!	!	!LO:LB:g=original	!	!	!
=-	=-	=-	=-	=-	=-	=-	=-	=-
8D\	.	8a\L	8a\L	.	8A\	Cae-	8dd\	cae-
8D\	.	16dd\L	16dd\L	.	16F#\	-li	16dd\	-li
.	.	16ff#\JJ	16ff#\JJ	.	16F#\	et	16dd\	et
8F#\	.	8aa\L	8aa\L	.	8D\	ter-	8dd\	ter-
8F#\J	.	16bb\L	16bb\L	.	8D\	-rae	8ff#\	-rae
.	.	16ccc\JJ	16ccc\JJ	.	.	.	.	.
=3	=3	=3	=3	=3	=3	=3	=3	=3
8G\L	.	16bb\LL	16bb\LL	.	8G\	Fi-	8dd\	vi-
.	.	16gg\	16gg\	.	.	.	.	.
8G\	.	16dd\	16dd\	.	16G\	-li-	8b\	-si-
.	.	16gg\JJ	16gg\JJ	.	16G\	-(um)	.	.
8G\	.	8dd\L	8dd\L	.	8G\	De-	4b\	-bi-
8G\	.	16gg\L	16gg\L	.	8G\	-i	.	.
.	.	16bb\JJ	16bb\JJ	.	.	.	.	.
8G\	.	4bb\	4bb\	.	8B\	u-	8dd\	-li-
8G\J	.	.	.	.	8B\	-ni-	8dd\	-um
=4	=4	=4	=4	=4	=4	=4	=4	=4
4D/	.	8bb\L	8bb\L	.	8G\	-ge-	8.b\	o-
.	.	8aa\J	8aa\J	.	8F#\	-ni-	.	.
.	.	.	.	.	.	.	16a\	-mni-
8D/L	.	4aa\	4aa\	.	4F#\	-t(um)	4a\	-um
8C/	.	.	.	.	.	.	.	.
8BB/	.	4r	4r	.	4r	.	4r	.
8AA/J	.	.	.	.	.	.	.	.
!	!	!	!	!	!LO:LB:g=original	!	!	!
=5	=5	=5	=5	=5	=5	=5	=5	=5
8G\L	.	16dd\LL	16gg\LL	.	8B\	et	8dd\	et
.	.	16b\	16dd\	.	.	.	.	.
8G\	.	16b\	16dd\	.	8B\	ex	8dd\	in-
.	.	16b\JJ	16dd\JJ	.	.	.	.	.
!	!	!	!	!	!	!	!LO:LB:g=original	!
=-	=-	=-	=-	=-	=-	=-	=-	=-
8G\	.	16dd\LL	16gg\LL	.	8G\	Pa-	8b\	-vi-
.	.	16b\	16dd\	.	.	.	.	.
8G\	.	16b\	16dd\	.	8G\	-tre	8g\	-si-
.	.	16b\JJ	16dd\JJ	.	.	.	.	.
!	!	!	!LO:LB:g=original	!	!	!	!	!
=-	=-	=-	=-	=-	=-	=-	=-	=-
8G\	.	16dd\LL	16gg\LL	.	8B\	na-	8.b\L	-bi-
.	.	16b\	16dd\	.	.	.	.	.
8G\J	.	16b\	16dd\	.	8G\	-t(um)	.	.
.	.	16b\JJ	16dd\JJ	.	.	.	16dd\Jk	.
!	!	!LO:LB:g=original	!	!	!	!	!	!
=6	=6	=6	=6	=6	=6	=6	=6	=6
8C/L	.	16cc/LL	16ee\LL	.	8c\	an-	8ee\	.
.	.	16g/	16cc\	.	.	.	.	.
8C/J	.	16g/	16cc\	.	8G\	-te	8cc\	-li-
.	.	16g/JJ	16cc\JJ	.	.	.	.	.
4C/	.	16cc\LL	16ee\LL	.	8G\	o-	4cc\	-um
.	.	16g\	16cc\	.	.	.	.	.
.	.	16g\	16cc\	.	16G\	-mni-	.	.
.	.	16g\JJ	16cc\JJ	.	16G\	-a	.	.
4r	.	16cc\LL	16ee\LL	.	4r	.	4r	.
.	.	16g\	16cc\	.	.	.	.	.
.	.	16g\	16cc\	.	.	.	.	.
.	.	16g\JJ	16cc\JJ	.	.	.	.	.
=7	=7	=7	=7	=7	=7	=7	=7	=7
8D\L	.	16ff#\LL	16aa\LL	.	8F#\	De-	8dd\	et
.	.	16dd\	16ff#\	.	.	.	.	.
16D\L	.	16dd\	16ff#\	.	16F#\	-um	8dd\	in
16E\JJ	.	16dd\JJ	16ff#\JJ	.	16F#\	de	.	.
8F#\L	.	16ff#\LL	16aa\LL	.	8D\	De-	8a\	u-
.	.	16dd\	16ff#\	.	.	.	.	.
8F#\	.	16dd\	16ff#\	.	16D\	-o	8dd\	-n(um)
.	.	16dd\JJ	16ff#\JJ	.	16D\	lu-	.	.
!	!	!	!	!	!LO:LB:g=original	!	!	!
=-	=-	=-	=-	=-	=-	=-	=-	=-
8D\	.	16ff#\LL	16aa\LL	.	8F#\	-men	8dd\	Do-
.	.	16dd\	16ff#\	.	.	.	.	.
8D\J	.	16dd\	16ff#\	.	8D\	de	16dd\	-mi-
.	.	16dd\JJ	16ff#\JJ	.	.	.	16dd\	-n(um)
!LO:LB:g=original	!	!	!	!	!	!	!	!
=8	=8	=8	=8	=8	=8	=8	=8	=8
8G\L	.	16gg\LL	16bb\LL	.	8G\	lu-	8b\	Je-
.	.	16dd\	16gg\	.	.	.	.	.
8G\	.	16dd\	16gg\	.	16G\	-mi-	8b\	-sum
.	.	16dd\JJ	16gg\JJ	.	16G\	-ne	.	.
!	!	!	!	!	!	!	!LO:LB:g=original	!
=-	=-	=-	=-	=-	=-	=-	=-	=-
8B\	.	16gg\LL	16bb\LL	.	8B\	De-	8dd\	Chri-
.	.	16dd\	16gg\	.	.	.	.	.
8B\	.	16dd\	16gg\	.	8G\	-(um)	8b\	-st(um)
.	.	16dd\JJ	16gg\JJ	.	.	.	.	.
*	*	*	*	*	*	*	*	*ij
8G\	.	16gg\LL	16bb\LL	.	8G\	ve-	8dd\	Chri-
.	.	16dd\	16gg\	.	.	.	.	.
8G\J	.	16dd\	16gg\	.	8B\	-r(um)	8b\	-stum
*	*	*	*	*	*	*	*	*Xij
.	.	16dd\JJ	16gg\JJ	.	.	.	.	.
=9	=9	=9	=9	=9	=9	=9	=9	=9
4C/	.	8ee\L	8gg\L	.	4c\	de	4ee\	De-
.	.	8cc\	8ee\	.	.	.	.	.
4C/	.	8cc\	8ee\	.	8c\	De-	8ee\	-(um)
.	.	8cc\J	8ee\J	.	8c\	-o	8ee\	de
4r	.	8cc\L	8ee\L	.	8c\	De-	8ee\L	De-
.	.	16b\L	16dd\L	.	16B\LL	-o	16dd\L	-o
.	.	16a\JJ	16cc\JJ	.	16A\JJ	.	16cc\JJ	.
=10	=10	=10	=10	=10	=10	=10	=10	=10
4D\	.	4a/	4cc\	.	(4A\	ve-	(4cc\	ve-
4G\	.	4g/	4b\	.	4G\)	.	4b\)	.
4G\	.	4b/	4dd\	.	4B\	-ro.	4dd\	-ro
!	!	!	!LO:LB:g=original	!	!LO:LB:g=original	!	!	!
=11	=11	=11	=11	=11	=11	=11	=11	=11
!	!	!	!	!	!	!	!LO:SIC:v:o=4.ee\	!
4G\	.	4b/	(4dd\	.	4.B\	ge-	4.dd\	ge-
4r	.	4a/	4cc\	.	.	.	.	.
!	!	!	!	!	!	!	!LO:SIC:v:o=8dd\	!
.	.	.	.	.	8A\	-ni-	8cc\	-ni-
!	!	!	!	!	!	!	!LO:SIC:v:o=4cc\	!
4r	.	4g/	4b\)	.	4G\	-t(um)	4b\	-t(um)
=12	=12	=12	=12	=12	=12	=12	=12	=12
4D\	.	4g/	4b\	.	4G\	n(on)	4b\	n(on)
4D\	.	4f#/	4a\	.	4F#\	fa-	4a\	fa-
4r	.	4b/	4dd\	.	4B\	-ct(um)	4dd\	-ct(um)
!	!	!LO:LB:g=original	!	!	!	!	!LO:LB:g=original	!
=13	=13	=13	=13	=13	=13	=13	=13	=13
8G\L	.	16dd\LL	16gg\LL	.	8G\	Con-	8b\	con-
.	.	16b\	16dd\	.	.	.	.	.
8G\	.	16b\	16dd\	.	8G\	-sub-	8b\	-sub-
.	.	16b\JJ	16dd\JJ	.	.	.	.	.
8B\	.	16dd\LL	16gg\LL	.	8G\	-stan-	8b\	-stan-
.	.	16b\	16dd\	.	.	.	.	.
8B\	.	16b\	16dd\	.	8G\	-ti-	8b\	-ti-
.	.	16b\JJ	16dd\JJ	.	.	.	.	.
8G\	.	16dd\LL	16ffn\LL	.	8B\	-a-	8b\	-a-
.	.	16dd\	16ff\	.	.	.	.	.
8G\J	.	16dd\	16ff\	.	8G\	-lem	8b\	-lem
.	.	16dd\JJ	16ff\JJ	.	.	.	.	.
=14	=14	=14	=14	=14	=14	=14	=14	=14
!LO:TX:t=P:problem=mixed beam	!	!	!	!	!	!	!	!
8c\L	.	16cc\LL	16ee\LL	.	4c\	Pa-	4cc\	Pa-
.	.	16g\	16cc\	.	.	.	.	.
8C/	.	16g\	16cc\	.	.	.	.	.
.	.	16g\JJ	16cc\JJ	.	.	.	.	.
8C/	.	16cc\LL	16ee\LL	.	4C/	-tri	4cc\	-tri
.	.	16g\	16cc\	.	.	.	.	.
8C/	.	16g\	16cc\	.	.	.	.	.
.	.	16g\JJ	16cc\JJ	.	.	.	.	.
8C/	.	16cc\LL	16ee\LL	.	4r	.	4r	.
.	.	16g\	16cc\	.	.	.	.	.
8C/J	.	16g\	16cc\	.	.	.	.	.
.	.	16g\JJ	16cc\JJ	.	.	.	.	.
!	!	!	!	!	!LO:PB:g=original	!	!	!
=15	=15	=15	=15	=15	=15	=15	=15	=15
8A\L	#	16ee\LL	16aa\LL	.	8A\	per	8cc#X\	per
.	.	16cc#X\	16ee\	.	.	.	.	.
16A\L	.	16cc#\	16ee\	.	8A\	qu(em)	8cc#\	qu(em)
16B\JJ	.	16cc#\JJ	16ee\JJ	.	.	.	.	.
8c#X\L	.	16ee\LL	16aa\LL	.	8c#X\	o-	8cc#\	o-
.	.	16cc#\	16ee\	.	.	.	.	.
8c#\	.	16cc#\	16ee\	.	16A\	-mni-	16cc#\	-mni-
.	.	16cc#\JJ	16ee\JJ	.	16A\	-a	16cc#\	-a
8A\	.	16ee\LL	16gg\LL	.	8c#\	fa-	8cc#\	fa-
.	.	16cc#\	16gg\	.	.	.	.	.
8A\J	.	16cc#\	16gg\	.	8A\	-cta	8cc#\	-cta
.	.	16cc#\JJ	16gg\JJ	.	.	.	.	.
!LO:LB:g=original	!	!	!	!	!	!	!LO:LB:g=original	!
=16	=16	=16	=16	=16	=16	=16	=16	=16
*	*	*	*	*	*2\right	*	*2\right	*
4d\	.	16dd\LL	16ff#\LL	.	2d\	ſunt	2dd\	sunt
.	.	16a\	16dd\	.	.	.	.	.
.	.	16a\	16dd\	.	.	.	.	.
.	.	16a\JJ	16dd\JJ	.	.	.	.	.
4D/	.	16dd\LL	16ff#\LL	.	.	.	.	.
.	.	16a\	16dd\	.	.	.	.	.
.	.	16a\	16dd\	.	.	.	.	.
.	.	16a\JJ	16dd\JJ	.	.	.	.	.
4r	.	16dd\LL	16ff#\LL	.	4r	.	4r	.
.	.	16a\	16dd\	.	.	.	.	.
.	.	16a\	16dd\	.	.	.	.	.
.	.	16a\JJ	16dd\JJ	.	.	.	.	.
!	!	!	!LO:LB:g=original	!	!	!	!	!
=17	=17	=17	=17	=17	=17	=17	=17	=17
!	!	!LO:TX:t=P:problem=mixed beam	!	!	!	!	!	!
8G|>\L	.	16g/LL	8gg\L	.	1.r	.	1.r	.
.	.	16gg\J	.	.	.	.	.	.
8F#|>\	.	8ff#\J	8ff#\	.	.	.	.	.
8G|>\	.	8gg\L	8gg\	.	.	.	.	.
8A|>\	.	8aa\	8aa\	.	.	.	.	.
8B|>\	.	8bb\	8bb\	.	.	.	.	.
8A|>\J	.	8aa\J	8aa\J	.	.	.	.	.
!	!	!LO:LB:g=original	!	!	!	!	!	!
=18	=18	=18	=18	=18	=18	=18	=18	=18
4F#|>\	.	4ff#\	4ff#\	.	.	.	.	.
4G|>\	.	4gg\	4gg\	.	.	.	.	.
4D|>\	.	4dd\	4dd\	.	.	.	.	.
=19	=19	=19	=19	=19	=19	=19	=19	=19
!LO:TX:t=P:problem=mixed beam	!	!	!	!	!	!	!	!
8c\L	.	8.cc\L	8.ee\L	.	8.c\	con-	8.ee\	con-
8C/J	.	.	.	.	.	.	.	.
.	.	16cc\Jk	16ee\Jk	.	16c\	-sub-	16ee\	-sub-
4C/	.	4cc\	4ee\	.	4c\	-stan-	4ee\	-st(an)-
4r	.	4a\	4cc\	.	4A\	-ti-	4cc\	-ti-
=20	=20	=20	=20	=20	=20	=20	=20	=20
!LO:TX:t=P:problem=mixed beam	!	!	!	!	!	!	!	!
8G\L	.	8.b\L	8.dd\L	.	8B\	-a-	8dd\	-a-
8GG/J	.	.	.	.	8B\	-lem	8dd\	-l(em)
.	.	16b\Jk	16dd\Jk	.	.	.	.	.
4GG/	.	4b\	4dd\	.	4B\	Pa-	4dd\	Pa-
4r	.	4g\	4b\	.	4G\	-tri	4b\	-tri
=21	=21	=21	=21	=21	=21	=21	=21	=21
8D\L	.	8.a/L	8.cc\L	.	8A\	per	8cc\	per
8D\J	.	.	.	.	8A\	qu(em)	8cc\	qu(em)
.	.	16a/Jk	16cc\Jk	.	.	.	.	.
!	!	!	!	!	!LO:LB:g=original	!	!	!
=-	=-	=-	=-	=-	=-	=-	=-	=-
4D\	.	4a/	4cc\	.	4A\	o-	4cc\	o-
4r	.	4f#/	4a\	.	8F#\	-mni-	8a\	-mni-
.	.	.	.	.	8F#\	-a	8a\	-a
=22	=22	=22	=22	=22	=22	=22	=22	=22
4r	.	8g/L	8b/L	.	8G\	fa-	8b\	fa-
.	.	8d/J	8f#/J	.	8D\	-cta	8f#\	-cta
!	!	!	!	!	!	!	!LO:LB:g=original	!
=-	=-	=-	=-	=-	=-	=-	=-	=-
!LO:TX:t=P:problem=nieczytelne cyfrowanie	!	!	!	!	!	!	!	!
8G\L	.	4g/	4g/	.	4G\	s(un)t	4g\	sunt
8F#\	.	.	.	.	.	.	.	.
8E\	.	4r	4r	.	4r	.	4r	.
8D#X\J	6	.	.	.	.	.	.	.
=23	=23	=23	=23	=23	=23	=23	=23	=23
8E\L	.	16b/LL	16ee\LL	.	4E\	qui	4b\	qui
.	.	16g/	16b\	.	.	.	.	.
8E\	.	16g/	16b\	.	.	.	.	.
.	.	16g/JJ	16b\JJ	.	.	.	.	.
8G\	.	16b/LL	16ee\LL	.	4G\	pro-	4b\	pro-
.	.	16g/	16b\	.	.	.	.	.
8G\	.	16g/	16b\	.	.	.	.	.
.	.	16g/JJ	16b\JJ	.	.	.	.	.
8E\	.	8g\L	8ee\L	.	8E\	-p(te)r	8b\	-pter
8E\J	.	16b\L	8gg\J	.	8E\	nos	8b\	nos
.	.	16ee\JJ	.	.	.	.	.	.
!LO:LB:g=original	!	!	!	!	!	!	!	!
=24	=24	=24	=24	=24	=24	=24	=24	=24
8D#X\L	.	16dd#X\LL	16ff#\LL	.	8.D#X\	ho-	8.dd#X\	ho-
!	!	!	!LO:SIC:v:o=16dd\	!	!	!	!	!
.	.	16b\	16dd#\	.	.	.	.	.
!	!	!	!LO:SIC:v:o=16dd\	!	!	!	!	!
8D#\	.	16b\	16dd#\	.	.	.	.	.
!	!	!	!LO:SIC:v:o=16dd\JJ	!	!	!	!	!
.	.	16b\JJ	16dd#\JJ	.	16D#\	-mi-	16dd#\	-mi-
8F#\	.	16dd#\LL	16ff#\LL	.	4D#\	-nes	4dd#\	-nes
!	!	!	!LO:SIC:v:o=16dd\	!	!	!	!	!
.	.	16b\	16dd#\	.	.	.	.	.
!	!	!	!LO:SIC:v:o=16dd\	!	!	!	!	!
8F#\	.	16b\	16dd#\	.	.	.	.	.
!	!	!	!LO:SIC:v:o=16dd\JJ	!	!	!	!	!
.	.	16b\JJ	16dd#\JJ	.	.	.	.	.
8D#\	.	8dd#X\L	8ff#\L	.	4r	.	4r	.
8D#\J	.	8ff#\J	8aa\J	.	.	.	.	.
!	!	!LO:LB:g=original	!LO:LB:g=original	!	!	!	!	!
=25	=25	=25	=25	=25	=25	=25	=25	=25
4E\	.	8ee\L	8gg\L	.	8r	.	8ee\L	et
.	.	16dd#X\L	16ff#\L	.	8B\	et	8dd#X\J	.
.	.	16b\JJ	16ee\JJ	.	.	.	.	.
8B\L	#	8b\L	8ff#\L	.	8B\	pro-	8dd#\	pro-
8B\	.	8b\	8dd#X\J	.	8B\	-pter	8dd#\	-pter
!	!	!	!	!	!LO:LB:g=original	!	!	!
=-	=-	=-	=-	=-	=-	=-	=-	=-
8B\	.	8b\	8dd#\L	.	8B\	no-	8dd#\	no-
8B\J	.	8b\J	8ee\J	.	16B\	-str(am)	16dd#\	-str(am)
.	.	.	.	.	16B\	ſa-	16dd#\	ſa-
!	!	!	!	!	!	!	!LO:LB:g=original	!
=26	=26	=26	=26	=26	=26	=26	=26	=26
8B\L	.	16b\LL	16ff#\LL	.	4B\	-lu-	4ee\	-lu-
.	.	16b\	16b\	.	.	.	.	.
8B\	.	16b\	16b\	.	.	.	.	.
.	.	16b\JJ	16b\JJ	.	.	.	.	.
8B\	.	16b\LL	16b\LL	.	4B\	-tem	4dd#X\	-tem
.	.	16b\	16b\	.	.	.	.	.
8B\	.	16b\	16b\	.	.	.	.	.
.	.	16b\JJ	16b\JJ	.	.	.	.	.
8B\	.	16b\LL	16b\LL	.	4r	.	4r	.
.	.	16b\	16b\	.	.	.	.	.
8B\J	.	16b\	16b\	.	.	.	.	.
.	.	16b\JJ	16b\JJ	.	.	.	.	.
=27	=27	=27	=27	=27	=27	=27	=27	=27
8A\L	4_ 2_	16b\LL	16dd#X\LL	.	4A\	et	2dd#X\	no-
.	.	16b\	16dd#\	.	.	.	.	.
8A\	x x	16b\	16dd#\	.	.	.	.	.
.	.	16b\JJ	16dd#\JJ	.	.	.	.	.
8A\	.	16b\LL	16dd#\LL	.	4A\	pro-	.	.
.	.	16b\	16dd#\	.	.	.	.	.
8A\	.	16b\	16dd#\	.	.	.	.	.
.	.	16b\JJ	16dd#\JJ	.	.	.	.	.
8A\	.	16b\LL	16ff#\LL	.	4A\	-p(te)r	4dd#\	-str(am)
.	.	16b\	16dd#\	.	.	.	.	.
8A\J	.	16b\	16dd#\	.	.	.	.	.
.	.	16b\JJ	16dd#\JJ	.	.	.	.	.
=28	=28	=28	=28	=28	=28	=28	=28	=28
4G\	6	16b\LL	16gg\LL	.	4G\	no-	4ee\	no-
.	.	16b\	16ee\	.	.	.	.	.
.	.	16b\	16ee\	.	.	.	.	.
.	.	16b\JJ	16ee\JJ	.	.	.	.	.
4E\	.	16b\LL	16gg\LL	.	4E\	-str(am)	4ee\	-str(am)
.	.	16b\	16ee\	.	.	.	.	.
.	.	16b\	16ee\	.	.	.	.	.
.	.	16b\JJ	16ee\JJ	.	.	.	.	.
4G\	.	16ee\LL	16bb\LL	.	4G\	ſa-	4ee\	ſa-
.	.	16ee\	16gg\	.	.	.	.	.
.	.	16ee\	16gg\	.	.	.	.	.
.	.	16ee\JJ	16gg\JJ	.	.	.	.	.
=29	=29	=29	=29	=29	=29	=29	=29	=29
4BB/	.	4ee\	4gg\	.	4B\	-lu-	4ee\	-lu-
8B\L	#	4dd#X\	4ff#\	.	4BB/	-tem	4dd#X\	-tem
8A\	.	.	.	.	.	.	.	.
8G\	.	4r	4r	.	4r	.	4r	.
8F#\J	.	.	.	.	.	.	.	.
!	!	!	!LO:PB:g=original	!	!	!	!	!
=30	=30	=30	=30	=30	=30	=30	=30	=30
8G\L	.	16dd\LL	16gg\LL	.	8r	.	8r	.
.	.	16b\	16dd\	.	.	.	.	.
8G\	.	16b\	16dd\	.	8B\	et	8dd\	et
.	.	16b\JJ	16dd\JJ	.	.	.	.	.
!	!	!LO:LB:g=original	!	!	!	!	!	!
=-	=-	=-	=-	=-	=-	=-	=-	=-
8B\	.	16dd\LL	16gg\LL	.	8B\	pro-	8dd\	pro-
.	.	16b\	16dd\	.	.	.	.	.
8B\	.	16b\	16dd\	.	8B\	-p(te)r	8dd\	-pter
.	.	16b\JJ	16dd\JJ	.	.	.	.	.
8G\	7	16dd\LL	16ffn\LL	.	8G\	no-	8dd\	no-
.	.	16b\	16ff\	.	.	.	.	.
8G\J	.	16dd\	16ff\	.	16B\	-str(am)	16dd\	-str(am)
.	.	16dd\JJ	16ff\JJ	.	16B\	ſa-	16dd\	ſa-
!	!	!	!	!	!LO:LB:g=original	!	!LO:LB:g=original	!
=31	=31	=31	=31	=31	=31	=31	=31	=31
!LO:TX:t=P:problem=mixed beam	!	!	!	!	!	!	!	!
8c\L	.	16b\LL	16ee\LL	.	4c\	-lu-	4ee\	-lu-
.	.	16g\	16cc\	.	.	.	.	.
8C/	.	16g\	16cc\	.	.	.	.	.
.	.	16g\JJ	16cc\JJ	.	.	.	.	.
8C/	.	16cc\LL	16ee\LL	.	4C/	-tem	4ee\	-tem
.	.	16g\	16cc\	.	.	.	.	.
8C/	.	16g\	16cc\	.	.	.	.	.
.	.	16g\JJ	16cc\JJ	.	.	.	.	.
8C/	.	16cc\LL	16ee\LL	.	4r	.	4r	.
.	.	16g\	16cc\	.	.	.	.	.
8C/J	.	16g\	16cc\	.	.	.	.	.
.	.	16g\JJ	16cc\JJ	.	.	.	.	.
!LO:LB:g=original	!	!	!	!	!	!	!	!
=32	=32	=32	=32	=32	=32	=32	=32	=32
8A\L	.	16ff#\LL	16aa\LL	.	8r	.	8r	.
.	.	16cc#X\	16ee\	.	.	.	.	.
8A\	.	16cc#\	16ee\	.	8A\	et	8ee\	et
.	.	16cc#\JJ	16ee\JJ	.	.	.	.	.
8c#X\	.	16ff#\LL	16aa\LL	.	8c#X\	pro-	8ee\	(pro)-
.	.	16cc#\	16ee\	.	.	.	.	.
!	!	!	!	!	!	!LO:MO:mod=-pter	!	!
8c#\	.	16cc#\	16ee\	.	8A\	-ptr	8ee\	-pter
.	.	16cc#\JJ	16ee\JJ	.	.	.	.	.
8A\	7	16ee\LL	16gg\LL	.	8c#\	no-	8ee\	no-
.	.	16ee\	16gg\	.	.	.	.	.
8A\J	.	16ee\	16gg\	.	16A\	-str(am)	16ee\	-str(am)
.	.	16ee\JJ	16gg\JJ	.	16A\	ſa-	16ee\	ſa-
=33	=33	=33	=33	=33	=33	=33	=33	=33
!LO:TX:t=P:problem=mixed beam	!	!	!	!	!	!	!	!
8d\L	.	16ff#\LL	16ff#\LL	.	4d\	-lu-	4ff#\	-lu-
.	.	16dd\	16dd\	.	.	.	.	.
8D/J	.	16dd\	16dd\	.	.	.	.	.
.	.	16dd\JJ	16dd\JJ	.	.	.	.	.
4D/	.	16dd\LL	16ff#\LL	.	4D\	-tem	4ff#\	-tem
.	.	16a\	16dd\	.	.	.	.	.
.	.	16a\	16dd\	.	.	.	.	.
.	.	16a\JJ	16dd\JJ	.	.	.	.	.
4r	.	16dd\LL	16ff#\LL	.	4r	.	4r	.
.	.	16a\	16cc\	.	.	.	.	.
.	.	16a\	16cc\	.	.	.	.	.
.	.	16a\JJ	16cc\JJ	.	.	.	.	.
=34	=34	=34	=34	=34	=34	=34	=34	=34
!	!	!LO:TX:t=P:problem=mixed beam	!	!	!	!	!	!
8G|>\L	.	16g/LL	16b\LL	.	8G\L	de-	8g\L	de-
.	.	16gg\J	16gg\J	.	.	.	.	.
8F#|>\	.	8ff#\J	8ff#\J	.	8F#\	.	8f#\J	.
8G|>\	.	8gg\L	8gg\L	.	8G\	.	8g\L	.
8A|>\	.	8aa\	8aa\	.	8A\J	.	8a\J	.
8B|>\	.	8bb\	8bb\	.	8B\L	.	8b\L	.
8A|>\J	.	8aa\J	8aa\J	.	8A\J	.	8a\J	.
=35	=35	=35	=35	=35	=35	=35	=35	=35
4G\	.	4gg\	4gg\	.	4G\	-scen-	4g\	-scen-
*2\right	*	*2\right	*2\right	*	*	*	*	*
2d\	.	2dd\	2dd\	.	4d\	-dit	4dd\	-dit
.	.	.	.	.	4d\	de	4dd\	de-
!	!	!LO:LB:g=original	!	!	!LO:LB:g=original	!	!LO:LB:g=original	!
=36	=36	=36	=36	=36	=36	=36	=36	=36
4e\	.	4ee\	4ee\	.	4e\	cae-	4ee\	-scen-
2c\	.	2cc\	2cc\	.	4c\	-lis	4cc\	-dit
.	.	.	.	.	4c\	de-	4cc\	de
=37	=37	=37	=37	=37	=37	=37	=37	=37
4d\	.	4dd\	4dd\	.	4d\	-scen-	4dd\	cae-
2B\	.	2b\	2b\	.	4B\	-dit	4b\	.
.	.	.	.	.	4B\	de	4b\	.
!	!	!	!LO:LB:g=original	!	!	!	!	!
=38	=38	=38	=38	=38	=38	=38	=38	=38
4c\	.	4cc\	4cc\	.	(4c\	cae-	4cc\	.
4B\	.	4b\	4b\	.	4B\)	.	4b\	.
4A\	.	4a\	4a\	.	4A\	.	4a\	.
=39	=39	=39	=39	=39	=39	=39	=39	=39
4G\	.	4d/ 4b 4gg	4d/ 4b 4gg	.	4G\	-lis	2g\	-lis
4r	.	4r	4r	.	4r	.	.	.
!LO:TX:a:t=39	!	!LO:TX:a:t=39	!LO:TX:a:t=39	!	!	!	!	!
4r	.	4r	4r	.	4r	.	4r	.
!LO:LB:g=original	!	!	!	!	!	!	!	!
=40||	=40||	=40||	=40||	=40||	=40||	=40||	=40||	=40||
*k[]	*	*k[]	*k[]	*	*k[]	*	*k[]	*
!LO:TX:b:t=Et incarnat(us)	!	!LO:TX:b:t=Et incarnat(us)	!LO:TX:b:t=Et incarnat(us)	!	!	!	!	!
!LO:TX:a:B:t=adagio	!	!LO:TX:a:B:t=Lente	!LO:TX:a:B:t=adagio	!	!LO:TX:a:B:t=Lente	!	!LO:TX:t=P:problem=brak oznaczenia tempa	!
4C/	.	4ee\	4gg\	.	0.r	.	0.r	.
4C/	.	4cc\	4ee\	.	.	.	.	.
4E/	.	4e/	4cc\	.	.	.	.	.
=41	=41	=41	=41	=41	=41	=41	=41	=41
4F\	.	8d/L	8b\L	.	.	.	.	.
.	.	8b/J	8dd\J	.	.	.	.	.
.	.	.	4qqdd/	.	.	.	.	.
4E\	.	2e/	2cc\	.	.	.	.	.
4C/	.	.	.	.	.	.	.	.
=42	=42	=42	=42	=42	=42	=42	=42	=42
4G\	.	(8g\L	(8g\L	.	.	.	.	.
.	.	8b\	8b\	.	.	.	.	.
4r	.	8dd\)	8dd\	.	.	.	.	.
.	.	(8ff\	8ff\	.	.	.	.	.
4r	.	8ee\	8ee\	.	.	.	.	.
.	.	8cc\J)	8cc\J)	.	.	.	.	.
=43	=43	=43	=43	=43	=43	=43	=43	=43
!	!	!	!LO:TX:t=P:problem=niejednoznaczny zapis ozdobnika [przyjęto tryl]	!	!	!	!	!
4G\	.	(8g\L	2.ggT\	.	.	.	.	.
.	.	8b\	.	.	.	.	.	.
4r	.	8dd\)	.	.	.	.	.	.
.	.	(8ff\	.	.	.	.	.	.
4r	.	8ee\	.	.	.	.	.	.
.	.	8cc\J)	.	.	.	.	.	.
!	!	!LO:LB:g=original	!	!	!	!	!	!
=44	=44	=44	=44	=44	=44	=44	=44	=44
4G\	.	(8g\L	(8g\L	.	1.r	.	1.r	.
.	.	8b\	8b\	.	.	.	.	.
4r	.	8dd\)	8dd\	.	.	.	.	.
.	.	(8ff\	8ff\	.	.	.	.	.
4r	.	8ee\	8ee\	.	.	.	.	.
.	.	8cc\J)	8cc\J)	.	.	.	.	.
=45	=45	=45	=45	=45	=45	=45	=45	=45
4F\	.	4dd\	(4ff\	.	.	.	.	.
4G\	.	4cc\	4ee\	.	.	.	.	.
4GG/	.	4b\	4dd\)	.	.	.	.	.
=46	=46	=46	=46	=46	=46	=46	=46	=46
4C/	.	2e/	2cc\	.	2.r	.	2.r	.
4GG/	.	.	.	.	.	.	.	.
4CC/	.	4r	4r	.	.	.	.	.
=47	=47	=47	=47	=47	=47	=47	=47	=47
!	!	!	!	!LO:DY:a:t=Po.	!	!	!	!
4C/	.	4cc\	4ee\	p	4G\	Et	4ee\	Et
4C/	.	4e/	4cc\	.	4E\	in-	4cc\	in-
4E\	.	4g/	4ee\	.	4C/	-car-	4ee\	-car-
!	!	!	!LO:LB:g=original	!	!	!	!	!
=48	=48	=48	=48	=48	=48	=48	=48	=48
4F\	.	8b/L	8dd\L	.	8F\	-na-	8dd\	-na-
.	.	8g/J	8b\J	.	8D\	-t(us)	8b\	-t(us)
!	!	!	!	!	!	!	!LO:LB:g=original	!
=-	=-	=-	=-	=-	=-	=-	=-	=-
4E\	.	2e/	2cc\	.	2E\	eſt	2cc\	eſt
4C/	.	.	.	.	.	.	.	.
!LO:LB:g=original	!	!	!	!	!LO:LB:g=original	!	!	!
=49	=49	=49	=49	=49	=49	=49	=49	=49
4G\	.	8d/L	8b\L	.	8D\L	de	8b\L	de
.	.	8e/J	8cc\J	.	8E\J	.	8cc\J	.
4GG/	.	4f/	4dd\	.	4F\	ſpi-	4dd\	ſpi-
4r	.	4e/	4cc\	.	8E\	-ri-	8cc\	-ri-
.	.	.	.	.	8E\	-tu	8cc\	-tu
=50	=50	=50	=50	=50	=50	=50	=50	=50
4G\	.	4e/	4cc\	.	4E\	ſan-	4cc\	ſan-
4GG/	.	4d/	4b\	.	4D\	-cto	4b\	-cto
4r	.	4r	4r	.	4r	.	4r	.
=51	=51	=51	=51	=51	=51	=51	=51	=51
!	!	!	!	!	!LO:TX:a:t=2	!	!	!
4G\	.	(8g\L	(8g\L	.	1.r	.	1.r	.
.	.	8b\	8b\	.	.	.	.	.
4r	.	8dd\)	8dd\)	.	.	.	.	.
.	.	(8ff\	(8ff\	.	.	.	.	.
4r	.	8ee\	8ee\	.	.	.	.	.
.	.	8dd\J)	8dd\J)	.	.	.	.	.
=52	=52	=52	=52	=52	=52	=52	=52	=52
4G\	.	4cc\	4ee\	.	.	.	.	.
.	.	.	4qqee/	.	.	.	.	.
4G\	.	2b\	2dd\	.	.	.	.	.
4F\	.	.	.	.	.	.	.	.
!	!	!LO:LB:g=original	!	!	!	!	!	!
=53	=53	=53	=53	=53	=53	=53	=53	=53
4E\	.	4cc\	4cc\	.	(4C/	ex	2.r	.
4r	.	4aa\	4aa\	.	4A\)	.	.	.
4r	.	4gg\	4gg\	.	4G\	Ma-	.	.
=54	=54	=54	=54	=54	=54	=54	=54	=54
4d\	#	4dd\	4ff#X\	.	2F#X\	-ri-	8dd\	ex
.	.	.	.	.	.	.	8dd\	Ma-
4c\	.	4dd\	4ff#\	.	.	.	4b\	-ri-
4B\	.	4dd\	4gg\	.	4G\	-a	4dd\	-a
=55	=55	=55	=55	=55	=55	=55	=55	=55
4c\	.	4ee\	8aa\L	.	8A\L	Vir-	4ee\	vir-
.	.	.	8gg\J	.	8G\J	.	.	.
4d\	.	4.dd\	4.ff#X\	.	4.F#X\	.	4.dd\	.
4D/	.	.	.	.	.	.	.	.
.	.	8dd\	8ff#\	.	8G\	-gi-	8dd\	-gi-
!	!	!	!	!	!	!	!LO:LB:g=original	!
=56	=56	=56	=56	=56	=56	=56	=56	=56
4G\	.	2b\	2gg\	.	2G\	-ne	2dd\	-ne
4D\	.	.	.	.	.	.	.	.
4GG/	.	4r	4r	.	4r	.	4r	.
!	!	!	!	!	!LO:LB:g=original	!	!	!
=57	=57	=57	=57	=57	=57	=57	=57	=57
4G\	.	4dd\	4ffn\	.	4F\	et	4dd\	et
4GG/	.	4cc\	4ee\	.	4E\	ho-	4cc\	Ho-
4r	.	4b\	4dd\	.	4D\	-mo	4b\	-mo
!LO:PB:g=original	!	!	!	!	!	!	!	!
=58	=58	=58	=58	=58	=58	=58	=58	=58
4G\	.	8cc\L	8ee\L	.	8C/	fa-	8ee\	fa-
.	.	8g\J	8b\J	.	8G\	-ct(us)	8b\	-ct(us)
4E\	.	2e/	2cc\	.	2E\	eſt	2cc\	eſt
4C/	.	.	.	.	.	.	.	.
=59	=59	=59	=59	=59	=59	=59	=59	=59
*	*	*	*	*	*	*	*	*ij
4G\	.	4dd\	8.ff\L	.	4F\	et	4dd\	et
.	.	.	16ff\Jk	.	.	.	.	.
!	!	!	!LO:LB:g=original	!	!	!	!	!
=-	=-	=-	=-	=-	=-	=-	=-	=-
4GG/	.	4cc\	4ee\	.	4E\	ho-	4cc\	Ho-
4r	.	4b\	4dd\	.	4D\	-mo	4b\	-mo
=60	=60	=60	=60	=60	=60	=60	=60	=60
4G\	.	8cc\L	8ee\L	.	8C/	fa-	8ee\	fa-
.	.	8g\J	8b\J	.	8G\	-ct(us)	8b\	-ctus
4E\	.	2e/	2cc\	.	2E\	eſt	2cc\	eſt
*	*	*	*	*	*	*	*	*Xij
4C/	.	.	.	.	.	.	.	.
=61	=61	=61	=61	=61	=61	=61	=61	=61
4F\	.	4f/	4f/	.	4F\	fa-	8a\	ho-
.	.	.	.	.	.	.	8dd\	-mo
4G\	.	4g/	4g/	.	4G\	.	4cc\	fa-
4GG/	.	4G/	4G/	.	4GG/	-ct(us)	4b\	-ct(us)
!	!	!	!	!	!	!	!LO:LB:g=original	!
=62	=62	=62	=62	=62	=62	=62	=62	=62
4C/	.	4c/	4c/	.	2C/	eſt	2cc\	eſt
4GG/	.	4G/	4G/	.	.	.	.	.
4CC/	.	4c/	4c/	.	4r	.	4r	.
=63	=63	=63	=63	=63	=63	=63	=63	=63
4G\	.	(8g\L	(8g\L	.	0.r	.	0.r	.
.	.	8b\	8b\	.	.	.	.	.
4r	.	8dd\)	8dd\)	.	.	.	.	.
.	.	(8ff\	(8ff\	.	.	.	.	.
4r	.	8ee\	8ee\	.	.	.	.	.
.	.	8cc\J)	8cc\J)	.	.	.	.	.
!	!	!LO:LB:g=original	!	!	!	!	!	!
=64	=64	=64	=64	=64	=64	=64	=64	=64
4G\	.	(8g\L	2.gg\	.	.	.	.	.
.	.	8b\	.	.	.	.	.	.
4r	.	8dd\)	.	.	.	.	.	.
.	.	(8ff\	.	.	.	.	.	.
4r	.	8ee\	.	.	.	.	.	.
.	.	8cc\J)	.	.	.	.	.	.
=65	=65	=65	=65	=65	=65	=65	=65	=65
4G\	.	(8g\L	(8g\L	.	.	.	.	.
.	.	8b\	8b\	.	.	.	.	.
4r	.	8dd\)	8dd\)	.	.	.	.	.
.	.	(8ff\	(8ff\	.	.	.	.	.
4r	.	8ee\	8ee\	.	.	.	.	.
.	.	8cc\J)	8cc\J)	.	.	.	.	.
=66	=66	=66	=66	=66	=66	=66	=66	=66
4F\	.	4dd\	4ff\	.	.	.	.	.
4G\	.	4cc\	4ee\	.	.	.	.	.
4GG/	.	4b\	4dd\	.	.	.	.	.
=67	=67	=67	=67	=67	=67	=67	=67	=67
4C/	.	2e/	2cc\	.	2.r	.	2.r	.
4GG/	.	.	.	.	.	.	.	.
!LO:TX:a:t=28	!	!LO:TX:a:t=28	!LO:TX:a:t=28	!	!	!	!	!
4CC/	.	4r	4r	.	.	.	.	.
!LO:LB:g=original	!	!	!LO:LB:g=original	!	!LO:LB:g=original	!	!	!
=68||	=68||	=68||	=68||	=68||	=68||	=68||	=68||	=68||
*	*	*	*	*	*	*	*ok[e-b-]	*
*k[b-e-]	*	*k[b-e-]	*k[b-e-]	*	*k[b-e-]	*	*k[b-e-]	*
*M4/4	*	*M4/4	*M4/4	*	*M4/4	*	*M4/4	*
*met(c)	*	*met(C.)	*met(c)	*	*met(c)	*	*met(c)	*
!	!	!LO:TX:b:t=Crucifixus.	!	!	!	!	!	!
!LO:TX:b:t=Crucifixus	!	!	!LO:TX:b:t=Crucifixus.	!	!	!	!LO:TX:t=P:problem=kolejność znaków e- b-	!
!LO:TX:a:B:t=adagio	!	!LO:TX:a:B:t=adagio	!LO:TX:a:B:t=adagio	!	!LO:TX:a:B:t=adagio	!	!LO:TX:a:B:t=ada&colon;	!
8.G\L	.	8.gg\L	8.gg\L	.	0r	.	00r	.
16F#X\Jk	.	16ff#X\K	16ff#X\K	.	.	.	.	.
8.G|>\L	.	8.gg\	8.gg\	.	.	.	.	.
16F#|>\Jk	.	16ff#\Jk	16ff#\Jk	.	.	.	.	.
!LO:TX:t=P:problem=brak trzeciej miary [zgodnie z vl 1 i vl 2]	!	!	!	!	!	!	!	!
4ryy	.	8.gg\L	8.gg\L	.	.	.	.	.
.	.	16ff#\K	16ff#\K	.	.	.	.	.
8.G|>\L	.	8.gg\	8.gg\	.	.	.	.	.
16D|>\Jk	.	16ff#\Jk	16dd\Jk	.	.	.	.	.
=69	=69	=69	=69	=69	=69	=69	=69	=69
8E-X\L	.	8ee-\L	8ee-\L	.	.	.	.	.
8D\J	.	8dd\J	8dd\J	.	.	.	.	.
4r;>	.	4r;>	4r;>	.	.	.	.	.
!	!	!LO:PB:g=original	!	!	!	!	!	!
=-	=-	=-	=-	=-	=-	=-	=-	=-
8.G|>\L	.	8.gg\L	8.gg\L	.	.	.	.	.
16F#X|>\Jk	.	16ff#X\K	16ff#X\K	.	.	.	.	.
8.G|>\L	.	8.gg\	8.gg\	.	.	.	.	.
16F#|>\Jk	.	16ff#\Jk	16ff#\Jk	.	.	.	.	.
=70	=70	=70	=70	=70	=70	=70	=70	=70
8.G|>\L	.	8.gg\L	8.gg\L	.	1r	.	.	.
16B-|>\Jk	.	16bb-\K	16bb-X\K	.	.	.	.	.
8.A|>\L	.	8.aa\	8.aa\	.	.	.	.	.
16G|>\Jk	.	16gg\Jk	16gg\Jk	.	.	.	.	.
8F#X|>\L	.	8ff#X\L	8ff#X\L	.	.	.	.	.
8G|>\J	.	8gg\J	8gg\J	.	.	.	.	.
4r;>	.	4r;>	4r;>	.	.	.	.	.
=71	=71	=71	=71	=71	=71	=71	=71	=71
4G\	.	2r	2r	.	8G\	Cru-	.	.
.	.	.	.	.	8F#X\	-ci-	.	.
4r	.	.	.	.	8G\	-fi-	.	.
.	.	.	.	.	8D\	-xus	.	.
8.G\L	.	8.gg\L	8.gg\L	.	2rBB	.	.	.
16D\Jk	.	16dd\Jk	16dd\Jk	.	.	.	.	.
8.BB-/L	.	8.b-\L	8.b-\L	.	.	.	.	.
16GG/Jk	.	16g\Jk	16g\Jk	.	.	.	.	.
=72	=72	=72	=72	=72	=72	=72	=72	=72
*	*	*	*	*	*	*ij	*	*
4F#X\	-7	2rg	2rg	.	8.E-X\	Cru-	1r	.
.	.	.	.	.	16D\	-ci-	.	.
4r	.	.	.	.	8E-\	-fi-	.	.
.	.	.	.	.	8C/	-xus	.	.
!LO:LB:g=original	!	!	!	!	!	!	!	!
=-	=-	=-	=-	=-	=-	=-	=-	=-
*	*	*	*	*	*	*Xij	*	*
8.e-X\L	.	8.ee-X\L	8.ee-X\L	.	2rBB	.	.	.
16c\Jk	.	16cc\Jk	16cc\Jk	.	.	.	.	.
8.A\L	.	8.a/L	8.a/L	.	.	.	.	.
16F#X\Jk	.	16f#X/Jk	16f#X/Jk	.	.	.	.	.
=73	=73	=73	=73	=73	=73	=73	=73	=73
8.F#X\L	.	8.cc\L	8.ee-X\L	.	8.c\	e-	8.ee-X\	E-
16F#\Jk	.	16cc\Jk	16ee-\Jk	.	16c\	-ti-	16ee-\	-ti-
4F#\	65 43	8b-\L	8dd\L	.	8B-\	-am	8dd\	-am
.	.	8a\J	8cc\J	.	8A\	pro	8cc\	pro
!	!	!	!LO:LB:g=original	!	!LO:LB:g=original	!	!	!
=-	=-	=-	=-	=-	=-	=-	=-	=-
4G\	.	4b-\	4gg\	.	4G\	no-	4b-\	no-
4D\	#	4a;>\	4ff#X;\	.	4F#X;>\	-bis	4a;>\	-bis
=74	=74	=74	=74	=74	=74	=74	=74	=74
4d|>\	.	4dd\	4dd\	.	4d\	ſub	4dd\	ſub
4B-\	.	8.dd\L	8.ee-X\L	.	8.c\	Pon-	8.ee-X\	Pon-
.	.	16dd\Jk	16ee-\Jk	.	16c\	-ti-	16ee-\	-ti-
4B-\	4 2	4cc\	4een\	.	4B-\	-o	4een\	-o
4A\	6\	4cc\	4ff#X\	.	4A\	Pi-	4ff#X\	Pi-
!	!	!	!	!	!	!	!LO:PB:g=original	!
=75	=75	=75	=75	=75	=75	=75	=75	=75
4G\	.	8b-\L	8gg\L	.	8G\	-la-	8gg\	-la-
.	.	8b-\J	8gg\J	.	8G\	-to	8dd\	-to
4r;>	.	4r;>	4r;>	.	4r;>	.	4r;>	.
8.e-X\L	.	8.ee-X\L	8.ee-X\L	.	8.e-\	Paſ-	8.ee-X\	paſ-
16c\Jk	.	16cc\Jk	16cc\Jk	.	16c\	-sus	16cc\	-sus
!	!	!LO:LB:g=original	!	!	!	!	!	!
=-	=-	=-	=-	=-	=-	=-	=-	=-
8.A\L	.	8.a/L	8.a/L	.	8.A\	et	8.a\	et
16F#X\Jk	.	16f#X/Jk	16f#X/Jk	.	16F#X\	ſe-	16f#X/	ſe-
=76	=76	=76	=76	=76	=76	=76	=76	=76
2C#X/	-7	2g/	2b-\	.	4G\	-pul-	4b-\	-pul-
.	.	.	.	.	4G\	-t(us)	4b-\	-t(us)
!LO:TX:a:t=9	!	!LO:TX:a:t=9	!LO:TX:a:t=9	!	!	!	!	!
2D\	#	2f#X/	2a\	.	2D\	eſt	2a\	eſt
!LO:LB:g=original	!	!	!	!	!LO:LB:g=original	!	!	!
=77||	=77||	=77||	=77||	=77||	=77||	=77||	=77||	=77||
*k[f#]	*	*k[f#]	*k[f#]	*	*k[f#]	*	*k[f#]	*
*M3/4	*	*M3/4	*M3/4	*	*M3/4	*	*M3/4	*
!LO:TX:b:t=Et resurrexit	!	!LO:TX:b:t=Et resurrexit.	!LO:TX:b:t=Et resurrexit.	!	!	!	!	!
!LO:TX:a:B:t=allo	!	!LO:TX:a:B:t=allo	!LO:TX:a:B:t=allo	!	!LO:TX:a:B:t=allo	!	!LO:TX:a:B:t=allo	!
4G\	.	4d/ 4b 4gg	4d/ 4b 4gg	.	4B\	Et	4b\	Et
4G\	.	4d/ 4b 4gg	4d/ 4b 4gg	.	4G\	re-	4dd\	re-
4G\	.	4d/ 4b 4gg	4d/ 4b 4gg	.	4G\	-sur-	4b\	-sur-
=78	=78	=78	=78	=78	=78	=78	=78	=78
4D\	.	4ff#\	4ff#\	.	4F#\	-re-	4a\	-re-
4D\	.	8ff#\L	8ff#\L	.	4F#\	-xit	4a\	-xit
.	.	8dd\	8dd\	.	.	.	.	.
!	!	!	!	!	!	!	!LO:LB:g=original	!
=-	=-	=-	=-	=-	=-	=-	=-	=-
4D\	.	8ee\	8ee\	.	8F#\	ter-	8a\	ter-
.	.	8ff#\J	8ff#\J	.	16D\	-ti-	16f#/	-ti-
.	.	.	.	.	16D\	-a	16f#/	-a
=79	=79	=79	=79	=79	=79	=79	=79	=79
4G\	.	16gg\LL	16gg\LL	.	2G\	di-	2b\	di-
.	.	16gg\	16gg\	.	.	.	.	.
.	.	16gg\	16gg\	.	.	.	.	.
.	.	16gg\JJ	16gg\JJ	.	.	.	.	.
4B\	.	16gg\LL	16gg\LL	.	.	.	.	.
.	.	16gg\	16gg\	.	.	.	.	.
.	.	16gg\	16gg\	.	.	.	.	.
.	.	16gg\JJ	16gg\JJ	.	.	.	.	.
4G\	.	16bb\LL	16bb\LL	.	4B\	-e	4dd\	-e
.	.	16bb\	16bb\	.	.	.	.	.
.	.	16bb\	16bb\	.	.	.	.	.
.	.	16bb\JJ	16bb\JJ	.	.	.	.	.
!	!	!	!LO:LB:g=original	!	!	!	!	!
=80	=80	=80	=80	=80	=80	=80	=80	=80
4D\	.	4ff#\	4ff#\	.	4F#\	ſe-	4a\	se-
4F#\	.	8ff#\L	8ff#\L	.	4F#\	-cun-	4a\	-cun-
.	.	8dd\	8dd\	.	.	.	.	.
4D\	.	8ee\	8ee\	.	8D\	-d(um)	8f#/	-d(um)
.	.	8ff#\J	8ff#\J	.	8D\	ſcri-	8f#/	scri-
=81	=81	=81	=81	=81	=81	=81	=81	=81
4G\	.	2gg\	2gg\	.	2G\	-ptu-	2b\	-ptu-
4B\	.	.	.	.	.	.	.	.
4G\	.	4bb\	4bb\	.	4B\	-ras	4dd\	-raſ
!	!	!	!	!	!LO:LB:g=original	!	!	!
=82	=82	=82	=82	=82	=82	=82	=82	=82
4D\	.	16ff#\LL	16ff#\LL	.	0.r	.	0.r	.
.	.	16ff#\	16ff#\	.	.	.	.	.
.	.	16ff#\	16ff#\	.	.	.	.	.
.	.	16ff#\JJ	16ff#\JJ	.	.	.	.	.
4F#\	.	16dd\LL	16dd\LL	.	.	.	.	.
.	.	16dd\	16dd\	.	.	.	.	.
.	.	16dd\	16dd\	.	.	.	.	.
.	.	16dd\JJ	16dd\JJ	.	.	.	.	.
4D\	.	16ff#\LL	16ff#\LL	.	.	.	.	.
.	.	16ff#\	16ff#\	.	.	.	.	.
.	.	16ff#\	16ff#\	.	.	.	.	.
.	.	16ff#\JJ	16ff#\JJ	.	.	.	.	.
=83	=83	=83	=83	=83	=83	=83	=83	=83
4G\	.	8gg\L	8gg\L	.	.	.	.	.
.	.	8ff#\	8ff#\	.	.	.	.	.
4G\	.	8gg\	8gg\	.	.	.	.	.
.	.	8aa\J	8aa\J	.	.	.	.	.
4G\	.	4bb\	4bb\	.	.	.	.	.
!	!	!LO:LB:g=original	!	!	!	!	!	!
=84	=84	=84	=84	=84	=84	=84	=84	=84
4D\	.	16ff#\LL	16ff#\LL	.	.	.	.	.
.	.	16ff#\	16ff#\	.	.	.	.	.
.	.	16ff#\	16ff#\	.	.	.	.	.
.	.	16ff#\JJ	16ff#\JJ	.	.	.	.	.
4F#\	.	16dd\LL	16dd\LL	.	.	.	.	.
.	.	16dd\	16dd\	.	.	.	.	.
.	.	16dd\	16dd\	.	.	.	.	.
.	.	16dd\JJ	16dd\JJ	.	.	.	.	.
4D\	.	16ff#\LL	16ff#\LL	.	.	.	.	.
.	.	16ff#\	16ff#\	.	.	.	.	.
.	.	16ff#\	16ff#\	.	.	.	.	.
.	.	16ff#\JJ	16ff#\JJ	.	.	.	.	.
=85	=85	=85	=85	=85	=85	=85	=85	=85
4G\	.	2gg\	2gg\	.	.	.	.	.
8G\L	.	.	.	.	.	.	.	.
8D\J	.	.	.	.	.	.	.	.
4GG/	.	4r	4r	.	.	.	.	.
!LO:LB:g=original	!	!	!	!	!	!	!	!
=86	=86	=86	=86	=86	=86	=86	=86	=86
4c\	.	4cc\	8.gg\L	.	8c\	et	8ee\	et
.	.	.	.	.	8c\	a-	8ee\	a-
.	.	.	16ee\Jk	.	.	.	.	.
4C/	.	4cc\	4ee\	.	4c\	-scen-	4ee\	-scen-
4r	.	4a\	4cc\	.	4A\	-dit	4cc\	-dit
=87	=87	=87	=87	=87	=87	=87	=87	=87
4G\	.	4b\	4dd\	.	4B\	in	4dd\	in
4GG/	.	4b\	4dd\	.	4B\	Cae-	4dd\	cae-
4r	.	4g/	4b\	.	4G\	-l(um)	4b\	-l[um]
!	!	!	!	!	!	!	!LO:LB:g=original	!
=88	=88	=88	=88	=88	=88	=88	=88	=88
4C/	.	4a/	4cc\	.	4A\	ſe-	4cc\	ſe-
4D/	.	4g/	4b\	.	8G\	-det	8b\	-det
.	.	.	.	.	8G\	ad	8b\	ad
4DD/	.	4f#/	4a\	.	8F#\	dex-	8a\	dex-
.	.	.	.	.	16F#\	-te-	16a\	-te-
.	.	.	.	.	16F#\	-ram	16a\	-ram
!	!	!	!LO:LB:g=original	!	!	!	!	!
=89	=89	=89	=89	=89	=89	=89	=89	=89
4GG/	.	8d/L	8g/L	.	4G\	Pa-	8g\L	Pa-
.	.	8f#/J	8f#/J	.	.	.	8f#\J	.
8G|>\L	.	4g/	4g/	.	4G\	-tris	4g\	-tris
8F#|>\J	.	.	.	.	.	.	.	.
8E|>\L	.	4r	4r	.	4r	.	4r	.
8D#X|>\J	.	.	.	.	.	.	.	.
!	!	!	!	!	!LO:LB:g=original	!	!	!
=90	=90	=90	=90	=90	=90	=90	=90	=90
4E\	.	4ee\	4ee\	.	4G\	et	4ee\	et
4BB/	#	8dd#X\L	8dd#X\L	.	8F#\	i-	8dd#X\	i-
.	.	8b\	8b\	.	8F#\	-te-	8dd#\	-te-
4BB/	.	8cc#X\	8cc#X\	.	8F#\	-rum	8b\	-rum
.	.	8dd#\J	8dd#\J	.	8F#\	ven-	8b\	ven-
=91	=91	=91	=91	=91	=91	=91	=91	=91
4E\	.	4ee\	4ee\	.	8G\	-tu-	8ee\	-tu-
.	.	.	.	.	8F#\	-rus	8dd#X\	-rus
!	!	!	!	!	!	!	!LO:LB:g=original	!
=-	=-	=-	=-	=-	=-	=-	=-	=-
4G\	.	8ee\L	8ee\L	.	2G\	eſt	2ee\	eſt
.	.	8ff#\J	8ff#\J	.	.	.	.	.
4E\	.	4gg\	4gg\	.	.	.	.	.
=92	=92	=92	=92	=92	=92	=92	=92	=92
!	!	!	!LO:SIC:v:o=4dd\	!	!	!	!	!
4B\	#	8.dd#X\L	4dd#\	.	8F#\	ju-	8dd#X\	ju-
.	.	.	.	.	8F#\	-di-	8dd#\	-di-
.	.	16dd#\Jk	.	.	.	.	.	.
!	!	!	!LO:SIC:v:o=4dd\	!	!	!	!	!
4B\	.	4dd#\	4dd#\	.	4F#\	-ca-	4dd#\	-ca-
4B\	.	4b\	4b\	.	4D#X\	-re	4b\	-re
=93	=93	=93	=93	=93	=93	=93	=93	=93
4E\	.	2ee\	2ee\	.	8G\L	vi-	2ee\	vi-
.	.	.	.	.	8F#\J	.	.	.
4E\	.	.	.	.	2G\	-vos	.	.
4G\	.	4gg\	4gg\	.	.	.	4ee\	-vos
!	!	!LO:LB:g=original	!	!	!	!	!	!
=94	=94	=94	=94	=94	=94	=94	=94	=94
4A\	.	4gg\	4gg\	.	4A\	et	4ee\	et
4B\	4	4ee\	4ff#\	.	4.B\	mor-	4.dd#X\	mor-
4BB/	#	4dd#X\	8ee\L	.	.	.	.	.
.	.	.	8dd#X\J	.	8BB/	-tu-	8dd#\	-tu-
!	!	!	!	!	!LO:LB:g=original	!	!	!
=95	=95	=95	=95	=95	=95	=95	=95	=95
4E\	.	4ee\	4ee\	.	4E\	-os	4ee\	-os
8B|>\L	.	4r	4r	.	4r	.	4r	.
8A|>\	.	.	.	.	.	.	.	.
8G|>\	.	4r	4r	.	4r	.	4r	.
8F#|>\J	.	.	.	.	.	.	.	.
!LO:LB:g=original	!	!	!	!	!	!	!	!
=96	=96	=96	=96	=96	=96	=96	=96	=96
4G\	.	16dd\LL	16gg\LL	.	4B\	Et	4dd\	et
.	.	16dd\	16gg\	.	.	.	.	.
.	.	16dd\	16gg\	.	.	.	.	.
.	.	16dd\JJ	16gg\JJ	.	.	.	.	.
4B\	.	16b\LL	16dd\LL	.	4G\	vi-	4b\	vi-
.	.	16b\	16dd\	.	.	.	.	.
.	.	16b\	16dd\	.	.	.	.	.
.	.	16b\JJ	16dd\JJ	.	.	.	.	.
4G\	.	16b\LL	16gg\LL	.	4B\	-t(am)	4dd\	-tam
.	.	16b\	16gg\	.	.	.	.	.
.	.	16b\	16gg\	.	.	.	.	.
.	.	16b\JJ	16gg\JJ	.	.	.	.	.
=97	=97	=97	=97	=97	=97	=97	=97	=97
4d\	.	16dd\LL	16ff#\LL	.	4F#\	ven-	4a\	ven-
.	.	16dd\	16ff#\	.	.	.	.	.
.	.	16dd\	16ff#\	.	.	.	.	.
.	.	16dd\JJ	16ff#\JJ	.	.	.	.	.
4D/	.	16a\LL	16dd\LL	.	4A\	-tu-	4f#/	-tu-
.	.	16a\	16dd\	.	.	.	.	.
.	.	16a\	16dd\	.	.	.	.	.
.	.	16a\JJ	16dd\JJ	.	.	.	.	.
4D/	.	16dd\LL	16ff#\LL	.	4F#\	-ri	4a\	-ri
.	.	16dd\	16ff#\	.	.	.	.	.
.	.	16dd\	16ff#\	.	.	.	.	.
.	.	16dd\JJ	16ff#\JJ	.	.	.	.	.
!	!	!	!LO:LB:g=original	!	!	!	!LO:LB:g=original	!
=98	=98	=98	=98	=98	=98	=98	=98	=98
4G\	.	8b\L	8gg\L	.	8.G\	ſae-	8.b\	ſae-
.	.	8a\J	8ff#\J	.	.	.	.	.
.	.	.	.	.	16G\	-cu-	16b\	-cu-
8G\L	.	4b\	4gg\	.	4G\	-li	4dd\	-li
8D\J	.	.	.	.	.	.	.	.
4GG/	.	4r	4r	.	4r	.	4r	.
=99	=99	=99	=99	=99	=99	=99	=99	=99
4D\	.	16ff#\LL	16aa\LL	.	4F#\	et	4a\	et
.	.	16ff#\	16aa\	.	.	.	.	.
.	.	16ff#\	16aa\	.	.	.	.	.
.	.	16ff#\JJ	16aa\JJ	.	.	.	.	.
4F#\	.	16dd\LL	16ff#\LL	.	4D\	vi-	4f#/	vi-
.	.	16dd\	16ff#\	.	.	.	.	.
.	.	16dd\	16ff#\	.	.	.	.	.
.	.	16dd\JJ	16ff#\JJ	.	.	.	.	.
4D\	.	16ff#\LL	16aa\LL	.	4F#\	-t(am)	4a\	-t(am)
.	.	16ff#\	16aa\	.	.	.	.	.
.	.	16ff#\	16aa\	.	.	.	.	.
.	.	16ff#\JJ	16aa\JJ	.	.	.	.	.
=100	=100	=100	=100	=100	=100	=100	=100	=100
4G\	.	16gg\LL	16bb\LL	.	4G\	ven-	4b\	ven-
.	.	16gg\	16bb\	.	.	.	.	.
.	.	16gg\	16bb\	.	.	.	.	.
.	.	16gg\JJ	16bb\JJ	.	.	.	.	.
4G\	.	16gg\LL	16gg\LL	.	4B\	-tu-	4g\	-tu-
.	.	16gg\	16gg\	.	.	.	.	.
.	.	16gg\	16gg\	.	.	.	.	.
.	.	16gg\JJ	16gg\JJ	.	.	.	.	.
4G\	.	16gg\LL	16bb\LL	.	4G\	-ri	4dd\	-ri
.	.	16gg\	16bb\	.	.	.	.	.
.	.	16gg\	16bb\	.	.	.	.	.
.	.	16gg\JJ	16bb\JJ	.	.	.	.	.
!	!	!LO:LB:g=original	!	!	!	!	!	!
=101	=101	=101	=101	=101	=101	=101	=101	=101
4D\	.	16ff#\LL	16aa\LL	.	4.F#\	ſae-	4.a\	ſae-
.	.	16ff#\	16aa\	.	.	.	.	.
.	.	16ff#\	16aa\	.	.	.	.	.
.	.	16ff#\JJ	16aa\JJ	.	.	.	.	.
4F#\	.	16dd\LL	16ff#\LL	.	.	.	.	.
.	.	16dd\	16ff#\	.	.	.	.	.
.	.	16dd\	16ff#\	.	8D\	-cu-	8f#/	-cu-
.	.	16dd\JJ	16ff#\JJ	.	.	.	.	.
4D\	.	16ff#\LL	16aa\LL	.	4F#\	-li	4a\	-li
.	.	16ff#\	16aa\	.	.	.	.	.
.	.	16ff#\	16aa\	.	.	.	.	.
.	.	16ff#\JJ	16aa\JJ	.	.	.	.	.
!	!	!	!	!	!LO:LB:g=original	!	!	!
=102	=102	=102	=102	=102	=102	=102	=102	=102
4G\	.	8gg\L	8bb\L	.	8G\L	A-	8b\L	A-
.	.	8ff#\J	8aa\J	.	8D\J	.	8f#\J	.
8G\L	.	4gg\	4bb\	.	4G\	-men	4dd\	-men
8D\J	.	.	.	.	.	.	.	.
4GG/	.	4r	4r	.	4r	.	4r	.
=103	=103	=103	=103	=103	=103	=103	=103	=103
4F#\	.	4ff#\	4ff#\	.	4F#\	A-	4f#/	A-
8F#|>\L	.	8ff#\L	8ff#\L	.	8F#\L	.	8f#/L	.
8D|>\	.	8dd\	8dd\	.	8D\	.	8d/	.
8E|>\	.	8ee\	8ee\	.	8E\	.	8e/	.
8F#|>\J	.	8ff#\J	8ff#\J	.	8F#\J	.	8f#/J	.
!	!	!	!	!	!	!	!LO:LB:g=original	!
=104	=104	=104	=104	=104	=104	=104	=104	=104
4G|>\	.	4gg\	4gg\	.	4G\	.	4g\	.
8G|>\L	.	8gg\L	8gg\L	.	8G\L	.	8g\L	.
8A|>\	.	8aa\	8aa\	.	8A\	.	8a\	.
8B|>\	.	8bb\	8bb\	.	8B\	.	8b\	.
!LO:SIC:v:o=8G|>\J	!	!	!	!	!LO:SIC:v:o=8G\J	!	!	!
8A|>\J	.	8aa\J	8aa\J	.	8A\J	.	8a\J	.
!LO:LB:g=original	!	!	!LO:LB:g=original	!	!	!	!	!
=105	=105	=105	=105	=105	=105	=105	=105	=105
4F#|>\	.	4ff#\	4ff#\	.	4F#\	.	4f#/	.
8F#|>\L	.	8ff#\L	8ff#\L	.	8F#\L	.	8f#/L	.
8D|>\	.	8dd\	8dd\	.	8D\	.	8d/	.
8E|>\	.	8ee\	8ee\	.	8E\	.	8e/	.
8F#|>\J	.	8ff#\J	8ff#\J	.	8F#\J	.	8f#/J	.
=106	=106	=106	=106	=106	=106	=106	=106	=106
4G\	.	8gg\L	8gg\L	.	8G\L	.	8g/L	.
.	.	8ff#\J	8ff#\J	.	8F#\J	.	8f#/J	.
8G\L	.	4gg\	4gg\	.	4G\	-men	4g/	-men
8D\J	.	.	.	.	.	.	.	.
4GG/	.	4r	4r	.	4r	.	4r	.
=107	=107	=107	=107	=107	=107	=107	=107	=107
8G|>\L	.	8gg\L	8gg\L	.	8G\L	A-	8gg\L	A-
8F#|>\J	.	8ff#\J	8ff#\J	.	8F#\J	.	8ff#\J	.
4G|>\	.	4gg\	4gg\	.	4G\	.	4gg\	.
!	!	!	!LO:SIC:v:o=4ee\	!	!LO:TX:a:t=d	!	!	!
4D|>\	.	4dd\	4dd\	.	4D\	.	4dd\	-men
=108	=108	=108	=108	=108	=108	=108	=108	=108
8E|>\L	.	8ee\L	8ee\L	.	8E\L	.	8ee\L	A-
8D|>\J	.	8dd\J	8dd\J	.	8D\J	.	8dd\J	.
4E|>\	.	4ee\	4ee\	.	4E\	.	4ee\	.
4C|>/	.	4cc\	4cc\	.	4C/	-men	4cc\	-men
!	!	!	!	!	!LO:LB:g=original	!	!	!
=109	=109	=109	=109	=109	=109	=109	=109	=109
8D|>/L	.	8dd\L	8dd\L	.	8D/L	A-	8dd\L	A-
8C|>/J	.	8cc\J	8cc\J	.	8C/J	.	8cc\J	.
4D|>/	.	4dd\	4dd\	.	4D/	.	4dd\	.
4BB|>/	.	4b\	4b\	.	4BB/	-men	4b\	-men
!	!	!LO:LB:g=original	!	!	!	!	!LO:LB:g=original	!
=110	=110	=110	=110	=110	=110	=110	=110	=110
4C/	.	4cc\	4cc\	.	4c\	A-	4cc\	A-
4BB/	.	4b\	4b\	.	4B\	.	4b\	.
4AA/	.	8a\L	8a\L	.	4A\	.	4a\	.
.	.	8ff#\J	8ff#\J	.	.	.	.	.
=111	=111	=111	=111	=111	=111	=111	=111	=111
4GG/	.	4d/ 4b 4gg	4d/ 4b 4gg	.	2.G\	.	4g\	.
4G\	.	4d/ 4b 4gg	4d/ 4b 4gg	.	.	.	4dd\	.
4G\	.	4d/ 4b 4gg	4d/ 4b 4gg	.	.	.	4dd\	.
=112	=112	=112	=112	=112	=112	=112	=112	=112
4G\	.	4d/ 4b 4gg	4d/ 4b 4gg	.	4G\	-men.	4dd\	-men
4r	.	4r	4r	.	4r	.	4r	.
!LO:TX:a:t=36	!	!LO:TX:a:t=36	!LO:TX:a:t=36	!	!	!	!	!
4r	.	4r	4r	.	4r	.	4r	.
==	==	==	==	==	==	==	==	==
*-	*-	*-	*-	*-	*-	*-	*-	*-
!!!system-decoration: [(s1,s2)][(s3,s4)][(s5)]
!!!RDF**kern: < = below
!!!RDF**kern: > = above
!!!RDF**kern: | = vertical stroke
!!!ENC: Andrzej Kubiczek
!!!END: 2020-12-13
!!!ENC: Marta Chmielewska
!!!END: 2022-03-26
